app/assets/images/heroicons/micro/currency-yen.svg

<svg width="16" height="16" viewBox="0 0 16 16" fill="none" xmlns="http://www.w3.org/2000/svg">
<path fill-rule="evenodd" clip-rule="evenodd" d="M15 8C15 11.866 11.866 15 8 15C4.13401 15 1 11.866 1 8C1 4.13401 4.13401 1 8 1C11.866 1 15 4.13401 15 8ZM5.60004 3.54998C5.35152 3.21861 4.88141 3.15145 4.55004 3.39998C4.21867 3.64851 4.15152 4.11861 4.40004 4.44998L7.06256 8H4.75C4.33579 8 4 8.33579 4 8.75C4 9.16421 4.33579 9.5 4.75 9.5H7.25004V10.5H4.75C4.33579 10.5 4 10.8358 4 11.25C4 11.6642 4.33579 12 4.75 12H7.25004V12.5C7.25004 12.9142 7.58583 13.25 8.00004 13.25C8.41426 13.25 8.75004 12.9142 8.75004 12.5V12H11.25C11.6642 12 12 11.6642 12 11.25C12 10.8358 11.6642 10.5 11.25 10.5H8.75004V9.5H11.25C11.6642 9.5 12 9.16421 12 8.75C12 8.33579 11.6642 8 11.25 8H8.93753L11.6 4.44998C11.8486 4.11861 11.7814 3.64851 11.45 3.39998C11.1187 3.15145 10.6486 3.21861 10.4 3.54998L8.00004 6.74998L5.60004 3.54998Z" fill="black"/>
</svg>

<svg xmlns="http://www.w3.org/2000/svg" viewBox="0 0 16 16" fill="currentColor" aria-hidden="true" data-slot="icon">
  <path fill-rule="evenodd" d="M15 8A7 7 0 1 1 1 8a7 7 0 0 1 14 0ZM5.6 3.55a.75.75 0 1 0-1.2.9L7.063 8H4.75a.75.75 0 0 0 0 1.5h2.5v1h-2.5a.75.75 0 0 0 0 1.5h2.5v.5a.75.75 0 0 0 1.5 0V12h2.5a.75.75 0 0 0 0-1.5h-2.5v-1h2.5a.75.75 0 0 0 0-1.5H8.938L11.6 4.45a.75.75 0 1 0-1.2-.9L8 6.75l-2.4-3.2Z" clip-rule="evenodd"/>
</svg>
